X: 1
T: CROTON -- HORNPIPE
B: Ryan's Mammoth Collection of Fiddle Tunes
R: hornpipe
M: 2/4
L: 1/16
Z: Contributed 20000505193620 by John Chambers jchambers:casc.com
K: C
uG2 \
| c"4"edf "0"egfa | g"0"efd "4"ecdB | cd"4"ec f"0"edc | B2G2G2 G2 |
| cedf egfa | gdeB cABG | ABcf ecdB | c2c2c2 :|
|: (u"0"ef) \
| g"0"efd "4"ecdB | cBAG AGFE | fd"4"ec dBcA | Bcdc BGAB |
| c"4"edB Gg"0"ec | "0"Aagf "4"edcB | cagf "0"edcB | c2c2c2 :|
